!!!!SEGMENT: pl-sa--377-a-viii-17--003_anonim--insignis-mater.krn
!!!cenid: 17xx:1725
!!!COM: Anonim
!!!COM-rismid: pe30004985
!!!CDT:
!!!CNT:
!!!OTL: Insignis mater
!!!PDT:
!!!AGN: Sacred
!!!SMS-siglum: PL-SA
!!!SMS-shelfmark: 377/A VIII 17
!!!SMS-shelfwork: 003 W
!!!SMS-variant:
!!!SMS-altvar:
!!!NIFC-rismid: 1001077374
!!!URL-scan: http://bc.bdsandomierz.pl/dlibra/publication/1681/edition/1649/content
!!!ONB-nifc: UWAGA: str. 5
!!!key: g
**kern	**text	**text	**text	**text	**text	**text
*I"Canto.	*	*	*	*	*	*
*I'S	*	*	*	*	*	*
*Isoprn	*	*	*	*	*	*
*ICvox	*	*	*	*	*	*
*IGsolo	*	*	*	*	*	*
*>[A,A,A,A,A,A]	*	*	*	*	*	*
*clefC1	*	*	*	*	*	*
*k[b-e-]	*	*	*	*	*	*
*g:	*	*	*	*	*	*
*M3/4	*	*	*	*	*	*
=1	=1	=1	=1	=1	=1	=1
!LO:TX:t=P:problem=znaki [b- ee-]	!	!	!	!	!	!
4g/	In-	Splen-	Res-	Te	Com-	Mor-
4b-\	-si-	-do-	-plen-	o	-peſ-	-tis-
4cc\	-gnis	-re	-du-	Re-	-ce	-que
=2	=2	=2	=2	=2	=2	=2
*2\right	*	*	*	*	*	*
2dd\	Ma-	Cae-	-it	-gi-	fa-	ho-
4cc\	-ter	-li	lux	-na	-mem	-ra
=3	=3	=3	=3	=3	=3	=3
4.b-\	prae-	to-	Et	pos-	peſ-	au-
8a\	-po-	-ta	te	-cit	-te(m)	-guſ-
4cc\	-ten-	ca-	In-	Po-	a-	-ta
=4	=4	=4	=4	=4	=4	=4
4b-\	-tis	-lus-	-cre-	-lo-	-t(us)	Ma-
2a\	De-	-tra-	-a-	-ni-	bel-	-ri-
=5	=5	=5	=5	=5	=5	=5
2.g/	-i	-ta	-ta	-a	-la	-a
=6	=6	=6	=6	=6	=6	=6
4g/	So-	ar-	A-	Iam	Re-	Pa-
4dd\	-la	-que	-ve	iam	-pel-	-tens
4ee-\	pec-	Spi-	mor-	la-	-le	no-
=7	=7	=7	=7	=7	=7	=7
2ff\	-ca-	-ri-	-tis	-ben-	ro-	-bis
4ee-\	-ti	-tu	um-	-ti	-bur	sit
=8	=8	=8	=8	=8	=8	=8
4.dd\	non	San-	-bra	o-	hoſ-	per
8dd\	ſu-	-cto	per	-pe-	-ti-	te
4gg\	-bia-	ſae-	te	-ad-	-um-	po-
=9	=9	=9	=9	=9	=9	=9
4ff\	-ces	-cun-	diſ-	-ſis	-que	-li
2ee-T\	le-	-da-	-sipa-	pi-	tol-	Vi-
=10	=10	=10	=10	=10	=10	=10
2.dd\	-gi	-ta	-ta	-a	-la.	-a.
!!LO:LB:g=original
=11||	=11||	=11||	=11||	=11||	=11||	=11||
4ff\	Ne	Splen-	Com-	Pri-	Pa-	E-
4ee-\	nos	-des-	-pla-	-mo	-tro-	-ter-
4dd\	la-	-cas	-ca	pec-	-na	-na
=12	=12	=12	=12	=12	=12	=12
2cc\	-ba-	no-	na-	-ca-	noſ-	Ma-
4b-\	-mur	-bis	-tum	-to	-tra	-ter
=13	=13	=13	=13	=13	=13	=13
4.cc\	ſi-	in	ſi-	In-	Si-	mi-
8dd\	-ne	ſplen-	-ne	-con-	-ne	-ri-
4ee-\	la-	-do-	la-	-ta-	la-	-fi-
=14	=14	=14	=14	=14	=14	=14
4dd\	-be	-re	-be	-mi-	-be	-ce
2ccT\	na-	na-	na-	-na-	na-	na-
=15	=15	=15	=15	=15	=15	=15
2.b-\	-ta	-ta	-ta	-ta	-ta	-ta
=16	=16	=16	=16	=16	=16	=16
2cc\	Vir-	Vir-	Vir-	Vir-	Vir-	Vir-
4dd\	-go	-go	-go	-go	-go	-go
=17	=17	=17	=17	=17	=17	=17
4b-\	Be-	Be-	Be-	Be-	Be-	Be-
2at\	-a-	-a-	-a-	-a-	-a-	-a-
=18	=18	=18	=18	=18	=18	=18
2.g/	-ta	-ta.	-ta	-ta.	-ta	-ta.
==	==	==	==	==	==	==
*-	*-	*-	*-	*-	*-	*-
!!!system-decoration: *
!!!AIN: 1 soprn
!!!ENC: Andrzej Gręziak
!!!END: 2020-01-11
!!!EED: Andrzej Borzym
!!!EST: 2021-12-30
